svgs/regular/calendar-exclamation.svg

<svg xmlns="http://www.w3.org/2000/svg" viewBox="0 0 448 512"><!--! Font Awesome Pro 6.0.0-alpha3 by @fontawesome - https://fontawesome.com License - https://fontawesome.com/license (Commercial License) --><path d="M224 432c17.67 0 32-14.33 32-32s-14.33-32-32-32c-17.67 0-32 14.33-32 32S206.3 432 224 432zM224 336c13.25 0 24-10.75 24-24v-64C248 234.8 237.3 224 224 224S200 234.8 200 248v64C200 325.3 210.8 336 224 336zM384 64h-40V24c0-13.25-10.75-24-23.1-24S296 10.75 296 24V64h-144V24C152 10.75 141.3 0 128 0S104 10.75 104 24V64H64C28.65 64 0 92.65 0 128v320c0 35.35 28.65 64 64 64h320c35.35 0 64-28.65 64-64V128C448 92.65 419.3 64 384 64zM400 448c0 8.824-7.178 16-16 16H64c-8.822 0-16-7.176-16-16V192h352V448z"/></svg>

<svg xmlns="http://www.w3.org/2000/svg" viewBox="0 0 448 512"><!--! Font Awesome Pro 6.4.2 by @fontawesome - https://fontawesome.com License - https://fontawesome.com/license (Commercial License) Copyright 2023 Fonticons, Inc. --><path d="M152 24c0-13.3-10.7-24-24-24s-24 10.7-24 24V64H64C28.7 64 0 92.7 0 128v16 48V448c0 35.3 28.7 64 64 64H384c35.3 0 64-28.7 64-64V192 144 128c0-35.3-28.7-64-64-64H344V24c0-13.3-10.7-24-24-24s-24 10.7-24 24V64H152V24zM48 192H400V448c0 8.8-7.2 16-16 16H64c-8.8 0-16-7.2-16-16V192zM256 400a32 32 0 1 0 -64 0 32 32 0 1 0 64 0zm-8-152c0-13.3-10.7-24-24-24s-24 10.7-24 24v64c0 13.3 10.7 24 24 24s24-10.7 24-24V248z"/></svg>
